app/assets/images/heroicons/micro/arrow-uturn-down.svg

<svg width="16" height="16" viewBox="0 0 16 16" fill="none" xmlns="http://www.w3.org/2000/svg">
<path fill-rule="evenodd" clip-rule="evenodd" d="M9.75 3.5C8.23122 3.5 7 4.73122 7 6.25V11.4393L9.21967 9.21967C9.51256 8.92678 9.98744 8.92678 10.2803 9.21967C10.5732 9.51256 10.5732 9.98744 10.2803 10.2803L6.78033 13.7803C6.48744 14.0732 6.01256 14.0732 5.71967 13.7803L2.21967 10.2803C1.92678 9.98744 1.92678 9.51256 2.21967 9.21967C2.51256 8.92678 2.98744 8.92678 3.28033 9.21967L5.5 11.4393V6.25C5.5 3.90279 7.40279 2 9.75 2C12.0972 2 14 3.90279 14 6.25V7.25C14 7.66421 13.6642 8 13.25 8C12.8358 8 12.5 7.66421 12.5 7.25V6.25C12.5 4.73122 11.2688 3.5 9.75 3.5Z" fill="#0F172A"/>
</svg>

<svg xmlns="http://www.w3.org/2000/svg" viewBox="0 0 16 16" fill="currentColor" aria-hidden="true" data-slot="icon">
  <path fill-rule="evenodd" d="M9.75 3.5A2.75 2.75 0 0 0 7 6.25v5.19l2.22-2.22a.75.75 0 1 1 1.06 1.06l-3.5 3.5a.75.75 0 0 1-1.06 0l-3.5-3.5a.75.75 0 1 1 1.06-1.06l2.22 2.22V6.25a4.25 4.25 0 0 1 8.5 0v1a.75.75 0 0 1-1.5 0v-1A2.75 2.75 0 0 0 9.75 3.5Z" clip-rule="evenodd"/>
</svg>
